client/public/assets/icons/utility/display_rich_text.svg

<?xml version="1.0"?><svg xmlns="http://www.w3.org/2000/svg" width="52" height="52" viewBox="0 0 52 52"><path fill="#fff" d="m4.1 43.1h43.9c0.9 0 1.6 0.7 1.6 1.6v3.1c0 0.9-0.7 1.6-1.6 1.6h-43.9c-0.9 0-1.6-0.7-1.6-1.6v-3.1c0-0.9 0.7-1.6 1.6-1.6z m0-14.1h43.9c0.9 0 1.6 0.7 1.6 1.6v3.1c0 0.9-0.7 1.6-1.6 1.6h-43.9c-0.9 0-1.6-0.7-1.6-1.6v-3.1c0-0.9 0.7-1.6 1.6-1.6z m27.9-14.1h16c0.9 0 1.6 0.7 1.6 1.6v3.1c0 0.9-0.7 1.6-1.6 1.6h-16c-0.9 0-1.6-0.7-1.6-1.6v-3.1c0-0.9 0.7-1.6 1.6-1.6z m-7.9 6.7l-7.4-18.3c-0.2-0.3-0.5-0.6-0.9-0.6h-5.7c-0.3 0-0.7 0.2-0.8 0.6l-6.8 18.3c-0.1 0.3 0.1 0.8 0.5 0.8h3.6c0.3 0 0.7-0.3 0.8-0.6l1.4-3.9h8.7l1.5 3.9c0.1 0.3 0.5 0.6 0.8 0.6h3.6c0.5 0 0.8-0.4 0.7-0.8z m-13.6-8.5l2.3-5.8h0.5l2.5 5.8h-5.3z"></path></svg>

<?xml version="1.0" encoding="utf-8"?>
<!-- Generator: Adobe Illustrator 21.1.0, SVG Export Plug-In . SVG Version: 6.00 Build 0)  -->
<svg version="1.1" id="Layer_1" xmlns="http://www.w3.org/2000/svg" xmlns:xlink="http://www.w3.org/1999/xlink" x="0px" y="0px"
	 width="52px" height="52px" viewBox="0 0 52 52" enable-background="new 0 0 52 52" xml:space="preserve">
<path fill="#FFFFFF" d="M4.1,43.1h43.9c0.9,0,1.6,0.7,1.6,1.6v3.1c0,0.9-0.7,1.6-1.6,1.6H4.1c-0.9,0-1.6-0.7-1.6-1.6v-3.1
	C2.5,43.8,3.2,43.1,4.1,43.1z"/>
<path fill="#FFFFFF" d="M4.1,29h43.9c0.9,0,1.6,0.7,1.6,1.6v3.1c0,0.9-0.7,1.6-1.6,1.6H4.1c-0.9,0-1.6-0.7-1.6-1.6v-3.1
	C2.5,29.7,3.2,29,4.1,29z"/>
<path fill="#FFFFFF" d="M32,14.9h16c0.9,0,1.6,0.7,1.6,1.6v3.1c0,0.9-0.7,1.6-1.6,1.6H32c-0.9,0-1.6-0.7-1.6-1.6v-3.1
	C30.4,15.6,31.1,14.9,32,14.9z"/>
<path fill="#FFFFFF" d="M24.1,21.6L16.7,3.3c-0.2-0.3-0.5-0.6-0.9-0.6h-5.7c-0.3,0-0.7,0.2-0.8,0.6L2.5,21.6
	c-0.1,0.3,0.1,0.8,0.5,0.8h3.6c0.3,0,0.7-0.3,0.8-0.6l1.4-3.9l8.7,0l1.5,3.9c0.1,0.3,0.5,0.6,0.8,0.6h3.6
	C23.9,22.4,24.2,22,24.1,21.6z M10.5,13.1l2.3-5.8h0.5l2.5,5.8H10.5z"/>
</svg>
